!!!COM: Ce/cile Chaminade
!!!CNT: Francais
!!!TXO: Francais
!!!OTL: "L'absente"
!!!LYR: Guinard, Edouard
!!!ENC: Amanda Harris
!!!YOR: Album of Songs, Volume 1
!!!YOR: Da Capo Press
!!!ODT: 1888/
!!NB: Vocal melody and text encoded
**kern	**silbe
*clefG2	*
*k[b-e-]	*
*M2/4	*
*MM[104]	*
=12	=12
*M6/8	*
{4.f	{Vois
8g	le
8a	vent
8b-	chas-
=13	=13
4cc	-sant
8dd	la
4cc	nu-
8cc	-e;
=14	=14
4.f	Vois
8g	l'oi-
8a	-seau
8b-	tra-
=15	=15
4dd	-ver-
8ee-	-sant
4.dd}	l'air;}
=16	=16
{8dd	{Vois
8dd	l'e/-
[8dd	-toi-
8dd]	-le
8cc	che-
8b-	-ve-
=17	=17
[4.ff	-lu-
4ff]	-e
8r	.
=18	=18
8cc	Ha^-
8cc	-tant
8cc	sa
8cc	course
8b-	in-
8a-	-con-
=19	=19
[4.ee-	-nu-
4ee-]	-e;
8r	.
=20	=20
8dd#	Vois
8bn	au
8g#	ciel
8a#	pas-
8.cc#	-ser
16bn	l'e/-
=21	=21
4.bn}	-clair.}
4r	.
8r	.
=24	=24
8.r	.
{8.b-	{Et
8.b-	ce-
8.b-	-pen-
=25	=25
*M2/4	*
4b-	-dant
8a	si
8b-	pres-
=26	=26
8a	-se/-
8g	-e
8r	.
8f	Que
=27	=27
4b-	l'ai-
8a	-le ou
8b-	la
=28	=28
8a-	fou-
8g-	-dre
4f}	soit,}
=29	=29
{4dd	{Quand
8cc	mes
8dd	|
=30	=30
8cc	yeux,
8b-	ma
8a	fi-
8g	-an-
=31	=31
8f#	-ce/e,
8g	Ne
8a	te
8a	voient
=32	=32
2a}	plus,}
=33	=33
{4dd	{ma
8cc	pen-
8dd	|
=34	=34
8cc	-se/-
8b-	-e
4r	.
=35	=35
4ee-	Vo-
8dd	-le
8ee-	plus
=36	=36
8dd	vi-
8cc#	-te
4r	.
=37	=37
4ff	Vo-
8ee-	-le
8ff	plus
=38	=38
8ee-	vi-
8dd	|
8cc	-te,
8g	plus
=39	=39
4b-	vi-
8a	-te
8b-	vers
=40	=40
4b-}	toi!}
4r	.
=55	=55
*M6/8	*
{4.f	{Vois
8g	l'en-
8a	-fant
8b-	qui
=56	=56
4cc	de
8dd	sa
4cc	me\-
8cc	-re
=57	=57
4.f	A\
8g	tout
8a	in-
8b-	-stant
=58	=58
4dd	suit
8ee-	les
4.dd}	pas;}
=59	=59
{8dd	{Vois
8dd	la\-
8dd	-bas
8dd	le
8cc	mur
8b-	de
=60	=60
4.ff	pier-
4ff	-re
8r	.
=61	=61
8cc	Qu'a\
8cc	ja-
8cc	-mais
8cc	ce
8b-	beau
8a-	li-
=62	=62
[4.ee-	-er-
4ee-]	-re
8r	.
=63	=63
8dd#	En-
8bn	-tou-
8g#	-re
8a#	de
8.c#	mil-
16bn	-le
=64	=64
4.bn}	bras.}
4r	.
8r	.
=67	=67
8.r	.
{8.b-	{Et
8.b-	ce-
8.b-	-pen-
=68	=68
*M2/4	*M2/4
4b-	-dant
8a	si
8b-	fix-
=69	=69
8a	-e/-
8g	-
8r	.
8f	Qu'a\
=70	=70
4b-	tout
8a	ob-
8b-	-jet
=71	=71
8a-	l'om-
8g-	-bre
4f}	soit,}
=72	=72
{4dd	{Quand
8cc	mes
8dd	|
=73	=73
8cc	yeux,
8b-	ma
8a	fi-
8g	-an-
=74	=74
8f#	-ce/e,
8g	Ne
8a	te
8a	voient
=75	=75
2a}	plus,}
=76	=76
{4dd	{ma
8cc	pen-
8dd	|
=77	=77
8cc	-se/-
8b-	-e
4r	.
=78	=78
4ee-	S'at-
8dd	-ta-
8ee-	-che en
=79	=79
8dd	-cor
8cc#	|
4r	.
=80	=80
4ff	S'at-
8ee-	-ta-
8ff	-che en-
=81	=81
8ee-	-cor
8dd	|
8cc	plus
8b-	a\
=82	=82
[2gg	toi,
=83	=83
8gg]	|
4a	plus
8b-	a\
=84	=84
4b-}	toi!}
4r	.
*-	*-
